F1 Grump/assets/track outlines/Interlagos - White_1.svg

<svg xmlns="http://www.w3.org/2000/svg" viewBox="0 0 3744.08 3000.35"><defs><style>.cls-1{fill:#fff;}</style></defs><title>Interlagos - White_1</title><g id="Layer_2" data-name="Layer 2"><g id="Layer_1-2" data-name="Layer 1"><path class="cls-1" d="M595.54,2995.29V2645.56h38.92v349.73Z"/><path class="cls-1" d="M719.86,2995.29V2645.56h72.78l133.93,315.37h10.61V2645.56h38.41v349.73H904.33l-136-315.36h-9.6v315.36Z"/><path class="cls-1" d="M1025.12,2680.43v-34.87h252.7v34.87H1171.18v314.86h-38.41V2680.43Z"/><path class="cls-1" d="M1327.34,2995.29V2645.56h212.77v34.37H1366.26v120.79h143.53v33.86H1366.26v126.35h173.85v34.36Z"/><path class="cls-1" d="M1645.74,2861.36v133.93h-38.92V2645.56H1736.2q55.59,0,83.65,25.77t28.05,80.36q0,80.86-64.19,101.59l67.22,142h-43l-63.17-133.93Zm91-34.36q71.25,0,71.26-73.54t-71.77-73.53h-90.46V2827Z"/><path class="cls-1" d="M2110.7,2995.29H1918.14V2645.56h38.92v314.86H2110.7Z"/><path class="cls-1" d="M2129.39,2995.29l96-349.73h84.91l96,349.73h-38.41l-25.27-90h-149.6l-25.27,90Zm125.34-316.37-53.06,191.54h132.41L2281,2678.92Z"/><path class="cls-1" d="M2593.85,2851.26v-34.88h96.53v171.84q-63.68,12.12-113.71,12.13-76.32,0-105.88-44t-29.57-135.7q0-91.72,29.57-135.95t104.87-44.22a497.89,497.89,0,0,1,97.54,10.1l17.18,3-1.51,32.34q-62.67-10.6-108.66-10.61-58.12,0-78.34,33.61t-20.22,111.69q0,78.09,20.22,111.69T2579.7,2966a382.94,382.94,0,0,0,72.27-7.07V2851.26Z"/><path class="cls-1" d="M3029,2823q0,93.51-29.82,135.45t-108.41,41.95q-78.58,0-108.41-43t-29.81-135.19q0-92.23,30.32-137t107.65-44.72q77.33,0,107.9,44.47T3029,2823Zm-236.53-1q0,76.83,20.22,110.43t78.08,33.61q57.87,0,77.83-32.85t20-110.18q0-77.32-20.73-112.7t-77.57-35.38q-56.86,0-77.33,35.13T2792.47,2821.94Z"/><path class="cls-1" d="M3196.78,2674.37q-75.81,0-75.81,57.11,0,31.83,17.44,43.71t70.76,23.76q53.31,11.88,75.55,30.83t22.24,62.41q0,107.66-111.69,107.65-36.9,0-92.49-8.59l-18.19-2.53,4-32.34q68.73,9.09,104.62,9.1,74.79,0,74.79-70.25,0-28.3-16.42-40.69t-61.41-21q-59.13-12.63-83.89-32.6t-24.77-67q0-94,112.71-94,36.88,0,88.44,7.58l17.18,2.53-3.53,32.85Q3226.09,2674.37,3196.78,2674.37Z"/><path class="cls-1" d="M2939.61,2253.81c-24.05,6.08-51.77,8.66-83.73,8-407.39-9.05-1477-12.49-2096.52-12.6-110.89,0-234.9-45.72-340.28-125.37-136.43-103.11-253.73-316.17-202.36-508,4.15-15.48,9.71-32.75,15.6-51,14.35-44.58,36-111.93,26.65-136.66-7.48-19.69-30.78-32.48-57.78-47.3-16.52-9.08-33.64-18.47-49.6-30.8-7.61-5.87-19.57-12-32.22-18.49-38.65-19.83-91.56-47-112.31-111.85-30.65-95.82,46.44-160.6,79.38-188.26,81.44-68.44,249.72-160.72,412.42-250l42-23.05c69-37.91,155.74-87.58,256.24-145C1117.28,430.1,1555.82,179.13,1818.11,83.08c191.43-70.11,417.52-71.24,617-72.2,56.42-.28,109.7-.54,157.83-2.46,18.64-.76,37.76-1.59,57.15-2.46,164.08-7.23,350-15.44,477.45,25.15,131,41.69,225.78,152.07,309.41,249.47,127.85,148.89,237.88,328.78,294.34,481.22,29.37,79.32,5.91,394.92-46.74,497.3-13.76,26.75-30.25,42.43-50.38,47.93l-1.11.28c-107.25,27.11-602.31-147-730.44-206.91-86.84-40.58-155.82-141.89-185.62-224.29-25.78-71.13-20.63-160.62,14.15-245.5,46.26-113,182.25-298.27,197.61-319,31.54-42.62,34.62-73.94,9.12-93-39.8-29.82-197.73,71.77-273.63,120.61l-16.68,10.73c-33.09,21.22-54.83,60.32-77.89,101.71-14.35,25.78-29.19,52.45-47.75,76.53-13.23,17.15-24.95,40.08-37.34,64.34C2442.49,675,2384.83,788,2209,744.85c-61.81-15.13-115.41-103-122-171.45-3.87-40.26,16.12-86.82,35.45-131.86,12.09-28.19,25.82-60.14,25.72-75.35-.15-18.95-8.14-54.49-29-69.17-13.47-9.48-33.32-9.79-59-.73-108.68,38-243.51,100.12-400.78,184.61C1602.46,511.51,1569.33,640,1571.54,715c2.1,71.31,43.7,198.07,104.15,234.37,43.45,26.1,262.55,109.59,474.43,190.34,272,103.65,580.35,221.13,679.63,276.91,67.2,37.74,156.46,108.43,200.06,230.9,17.21,48.33,22.86,120.28,30,211.33,2.24,28.55,4.62,59,7.56,91,11.94,130.56-2.76,210.24-47.69,258.37-20.7,22.17-46.9,37.2-80.1,45.61M1925.36,126.37a829.15,829.15,0,0,0-82.19,25.17c-256.48,93.91-692,343.12-1009.91,525.09C732.49,734.3,645.47,784.1,576,822.3l-42,23.06c-152.17,83.49-324.67,178.09-400.6,241.9-44.8,37.64-70,69.22-56.84,110.22,11.53,36,42.93,52.15,76.14,69.2,15.74,8.07,30.59,15.69,43.5,25.66,11.49,8.86,25.41,16.5,40.14,24.59,34.61,19,73.84,40.52,90.86,85.34,18.47,48.61-4.86,121-25.42,184.87-5.6,17.41-10.89,33.84-14.58,47.56-48.34,180.56,82.23,360.14,175.9,430.94,91.62,69.25,202.4,110.61,296.35,110.63,619.86.09,1690.15,3.55,2098.13,12.61,53.82,1.2,88.41-8.5,108.91-30.41,29.12-31.22,38.13-95.39,28.38-202-3-32.36-5.38-63.1-7.65-92-6.73-85.67-12.05-153.37-26-192.6-36-101.2-110.74-160.13-167.07-191.78-94.58-53.12-400.22-169.6-669.89-272.36-234.49-89.36-437-166.52-486-195.95-86.89-52.17-136.84-204.69-139.47-294.72-2.74-92.34,35.5-251.67,126.22-300.43,160.6-86.29,298.94-149.95,411.2-189.2,61.11-21.43,101.78-6.43,125,9.92,46.83,33,59.7,96.14,59.93,128.25.23,30.49-15.24,66.5-31.61,104.65-14.24,33.16-32,74.44-29.87,96.11,4.34,45.13,42.94,101.79,66.79,107.63,119.78,29.35,152.21-34.2,193.28-114.67,13.36-26.17,27.16-53.24,44.54-75.76,15.24-19.74,28.13-42.91,41.8-67.44,26.39-47.43,53.7-96.48,102.19-127.63l16.61-10.65c129.58-83.37,276.43-177.83,356.79-117.67,59.49,44.55,61.69,119.18,5.77,194.74-53.7,72.59-153.9,218.15-188.75,303.28-27.59,67.34-32.46,139.5-13.08,193,23.91,66.05,80.4,151.52,147.95,183.08,158.53,74.1,605.42,217,679.11,202.88,44.5-41.29,75.52-382.1,50.34-450.13-53.61-144.75-158.77-316.37-281.29-459C3304.3,238,3216.67,136,3105.39,100.58c-115-36.65-294.11-28.76-452.1-21.78-19.51.86-38.71,1.71-57.48,2.46-49.38,2-103.28,2.23-160.35,2.52-164.8.81-348.37,1.71-510.1,42.59m-1815.48,933,.15,0Z"/></g></g></svg>

<svg width="3744" height="2305" viewBox="0 0 3744 2305" fill="none" xmlns="http://www.w3.org/2000/svg">
<g clip-path="url(#clip0_13_679)">
<path d="M2939.61 2253.81C2915.56 2259.89 2887.84 2262.47 2855.88 2261.81C2448.49 2252.76 1378.88 2249.32 759.36 2249.21C648.47 2249.21 524.46 2203.49 419.08 2123.84C282.65 2020.73 165.35 1807.67 216.72 1615.84C220.87 1600.36 226.43 1583.09 232.32 1564.84C246.67 1520.26 268.32 1452.91 258.97 1428.18C251.49 1408.49 228.19 1395.7 201.19 1380.88C184.67 1371.8 167.55 1362.41 151.59 1350.08C143.98 1344.21 132.02 1338.08 119.37 1331.59C80.7197 1311.76 27.8097 1284.59 7.05974 1219.74C-23.5903 1123.92 53.4997 1059.14 86.4397 1031.48C167.88 963.04 336.16 870.76 498.86 781.48L540.86 758.43C609.86 720.52 696.6 670.85 797.1 613.43C1117.28 430.1 1555.82 179.13 1818.11 83.0801C2009.54 12.9701 2235.63 11.8401 2435.11 10.8801C2491.53 10.6001 2544.81 10.3401 2592.94 8.42009C2611.58 7.66009 2630.7 6.83009 2650.09 5.96009C2814.17 -1.26991 3000.09 -9.47991 3127.54 31.1101C3258.54 72.8001 3353.32 183.18 3436.95 280.58C3564.8 429.47 3674.83 609.36 3731.29 761.8C3760.66 841.12 3737.2 1156.72 3684.55 1259.1C3670.79 1285.85 3654.3 1301.53 3634.17 1307.03L3633.06 1307.31C3525.81 1334.42 3030.75 1160.31 2902.62 1100.4C2815.78 1059.82 2746.8 958.51 2717 876.11C2691.22 804.98 2696.37 715.49 2731.15 630.61C2777.41 517.61 2913.4 332.34 2928.76 311.61C2960.3 268.99 2963.38 237.67 2937.88 218.61C2898.08 188.79 2740.15 290.38 2664.25 339.22L2647.57 349.95C2614.48 371.17 2592.74 410.27 2569.68 451.66C2555.33 477.44 2540.49 504.11 2521.93 528.19C2508.7 545.34 2496.98 568.27 2484.59 592.53C2442.49 675 2384.83 788 2209 744.85C2147.19 729.72 2093.59 641.85 2087 573.4C2083.13 533.14 2103.12 486.58 2122.45 441.54C2134.54 413.35 2148.27 381.4 2148.17 366.19C2148.02 347.24 2140.03 311.7 2119.17 297.02C2105.7 287.54 2085.85 287.23 2060.17 296.29C1951.49 334.29 1816.66 396.41 1659.39 480.9C1602.46 511.51 1569.33 640 1571.54 715C1573.64 786.31 1615.24 913.07 1675.69 949.37C1719.14 975.47 1938.24 1058.96 2150.12 1139.71C2422.12 1243.36 2730.47 1360.84 2829.75 1416.62C2896.95 1454.36 2986.21 1525.05 3029.81 1647.52C3047.02 1695.85 3052.67 1767.8 3059.81 1858.85C3062.05 1887.4 3064.43 1917.85 3067.37 1949.85C3079.31 2080.41 3064.61 2160.09 3019.68 2208.22C2998.98 2230.39 2972.78 2245.42 2939.58 2253.83M1925.36 126.37C1897.55 133.333 1870.11 141.735 1843.17 151.54C1586.69 245.45 1151.17 494.66 833.26 676.63C732.49 734.3 645.47 784.1 576 822.3L534 845.36C381.83 928.85 209.33 1023.45 133.4 1087.26C88.5997 1124.9 63.3997 1156.48 76.5597 1197.48C88.0897 1233.48 119.49 1249.63 152.7 1266.68C168.44 1274.75 183.29 1282.37 196.2 1292.34C207.69 1301.2 221.61 1308.84 236.34 1316.93C270.95 1335.93 310.18 1357.45 327.2 1402.27C345.67 1450.88 322.34 1523.27 301.78 1587.14C296.18 1604.55 290.89 1620.98 287.2 1634.7C238.86 1815.26 369.43 1994.84 463.1 2065.64C554.72 2134.89 665.5 2176.25 759.45 2176.27C1379.31 2176.36 2449.6 2179.82 2857.58 2188.88C2911.4 2190.08 2945.99 2180.38 2966.49 2158.47C2995.61 2127.25 3004.62 2063.08 2994.87 1956.47C2991.87 1924.11 2989.49 1893.37 2987.22 1864.47C2980.49 1778.8 2975.17 1711.1 2961.22 1671.87C2925.22 1570.67 2850.48 1511.74 2794.15 1480.09C2699.57 1426.97 2393.93 1310.49 2124.26 1207.73C1889.77 1118.37 1687.26 1041.21 1638.26 1011.78C1551.37 959.61 1501.42 807.09 1498.79 717.06C1496.05 624.72 1534.29 465.39 1625.01 416.63C1785.61 330.34 1923.95 266.68 2036.21 227.43C2097.32 206 2137.99 221 2161.21 237.35C2208.04 270.35 2220.91 333.49 2221.14 365.6C2221.37 396.09 2205.9 432.1 2189.53 470.25C2175.29 503.41 2157.53 544.69 2159.66 566.36C2164 611.49 2202.6 668.15 2226.45 673.99C2346.23 703.34 2378.66 639.79 2419.73 559.32C2433.09 533.15 2446.89 506.08 2464.27 483.56C2479.51 463.82 2492.4 440.65 2506.07 416.12C2532.46 368.69 2559.77 319.64 2608.26 288.49L2624.87 277.84C2754.45 194.47 2901.3 100.01 2981.66 160.17C3041.15 204.72 3043.35 279.35 2987.43 354.91C2933.73 427.5 2833.53 573.06 2798.68 658.19C2771.09 725.53 2766.22 797.69 2785.6 851.19C2809.51 917.24 2866 1002.71 2933.55 1034.27C3092.08 1108.37 3538.97 1251.27 3612.66 1237.15C3657.16 1195.86 3688.18 855.05 3663 787.02C3609.39 642.27 3504.23 470.65 3381.71 328.02C3304.3 238 3216.67 136 3105.39 100.58C2990.39 63.9301 2811.28 71.8201 2653.29 78.8001C2633.78 79.6601 2614.58 80.5101 2595.81 81.2601C2546.43 83.2601 2492.53 83.4901 2435.46 83.7801C2270.66 84.5901 2087.09 85.4901 1925.36 126.37Z" fill="white"/>
</g>
<defs>
<clipPath id="clip0_13_679">
<rect width="3744" height="2305" fill="white"/>
</clipPath>
</defs>
</svg>
